; G-Code generated by Simplify3D(R) Version 4.1.2
; Jan 6, 2023 at 1:34:18 PM
; Settings Summary
;   processName,Process1
;   applyToModels,Retangulo - v2(3)
;   profileName,CORE A1v2 PLA - Ensaio dataset 06-01-2023 
;   profileVersion,2023-01-06 11:25:13
;   baseProfile,ABS Q. MEDIA
;   printMaterial,
;   printQuality,
;   printExtruders,
;   extruderName,Extruder 1
;   extruderToolheadNumber,0
;   extruderDiameter,0.4
;   extruderAutoWidth,0
;   extruderWidth,0.44
;   extrusionMultiplier,1
;   extruderUseRetract,1
;   extruderRetractionDistance,3.5
;   extruderExtraRestartDistance,0
;   extruderRetractionZLift,1
;   extruderRetractionSpeed,3600
;   extruderUseCoasting,1
;   extruderCoastingDistance,0.1
;   extruderUseWipe,1
;   extruderWipeDistance,2
;   primaryExtruder,0
;   layerHeight,0.3
;   topSolidLayers,9
;   bottomSolidLayers,6
;   perimeterOutlines,3
;   printPerimetersInsideOut,0
;   startPointOption,3
;   startPointOriginX,0
;   startPointOriginY,0
;   sequentialIslands,0
;   spiralVaseMode,0
;   firstLayerHeightPercentage,100
;   firstLayerWidthPercentage,125
;   firstLayerUnderspeed,1
;   useRaft,0
;   raftExtruder,0
;   raftTopLayers,3
;   raftBaseLayers,2
;   raftOffset,3
;   raftSeparationDistance,0.14
;   raftTopInfill,100
;   aboveRaftSpeedMultiplier,0.3
;   useSkirt,1
;   skirtExtruder,0
;   skirtLayers,1
;   skirtOutlines,2
;   skirtOffset,4
;   usePrimePillar,0
;   primePillarExtruder,999
;   primePillarWidth,12
;   primePillarLocation,7
;   primePillarSpeedMultiplier,1
;   useOozeShield,0
;   oozeShieldExtruder,999
;   oozeShieldOffset,2
;   oozeShieldOutlines,1
;   oozeShieldSidewallShape,1
;   oozeShieldSidewallAngle,30
;   oozeShieldSpeedMultiplier,1
;   infillExtruder,0
;   internalInfillPattern,Rectilinear
;   externalInfillPattern,Rectilinear
;   infillPercentage,20
;   outlineOverlapPercentage,15
;   infillExtrusionWidthPercentage,100
;   minInfillLength,5
;   infillLayerInterval,2
;   internalInfillAngles,45,-45
;   overlapInternalInfillAngles,0
;   externalInfillAngles,45,-45
;   generateSupport,0
;   supportExtruder,0
;   supportInfillPercentage,30
;   supportExtraInflation,0.4
;   supportBaseLayers,0
;   denseSupportExtruder,0
;   denseSupportLayers,0
;   denseSupportInfillPercentage,70
;   supportLayerInterval,2
;   supportHorizontalPartOffset,0.4
;   supportUpperSeparationLayers,1
;   supportLowerSeparationLayers,1
;   supportType,0
;   supportGridSpacing,4
;   maxOverhangAngle,60
;   supportAngles,45
;   temperatureName,Extruder 1 Temperature,Heated Bed
;   temperatureNumber,0,0
;   temperatureSetpointCount,2,1
;   temperatureSetpointLayers,1,2,1
;   temperatureSetpointTemperatures,180,180,60
;   temperatureStabilizeAtStartup,1,1
;   temperatureHeatedBed,0,1
;   fanLayers,1,3
;   fanSpeeds,0,100
;   blipFanToFullPower,1
;   adjustSpeedForCooling,0
;   minSpeedLayerTime,25
;   minCoolingSpeedSlowdown,40
;   increaseFanForCooling,1
;   minFanLayerTime,45
;   maxCoolingFanSpeed,100
;   increaseFanForBridging,1
;   bridgingFanSpeed,100
;   use5D,1
;   relativeEdistances,0
;   allowEaxisZeroing,1
;   independentExtruderAxes,0
;   includeM10123,0
;   stickySupport,1
;   applyToolheadOffsets,0
;   gcodeXoffset,0
;   gcodeYoffset,0
;   gcodeZoffset,0
;   overrideMachineDefinition,1
;   machineTypeOverride,0
;   strokeXoverride,300
;   strokeYoverride,200
;   strokeZoverride,300
;   originOffsetXoverride,0
;   originOffsetYoverride,0
;   originOffsetZoverride,0
;   homeXdirOverride,-1
;   homeYdirOverride,-1
;   homeZdirOverride,-1
;   flipXoverride,1
;   flipYoverride,-1
;   flipZoverride,1
;   toolheadOffsets,0,0|0,0|0,0|0,0|0,0|0,0
;   overrideFirmwareConfiguration,0
;   firmwareTypeOverride,RepRap (Marlin/Repetier/Sprinter)
;   GPXconfigOverride,r2
;   baudRateOverride,115200
;   overridePrinterModels,0
;   printerModelsOverride
;   startingGcode,M109 S180; FAZ AQUECIMENTO DO BICO,M402,G28; HOME GERAL,M400,G29 V4 T ; AUTO NIVELAMENTO,M400,M104 S[extruder0_temperature]; FAZ PRE AQUECIMENTO DO BICO,G1 X1 Y1 Z0.8 F1000; VAI PRA PONTO DE PURGA,M109 S[extruder0_temperature]; FAZ AQUECIMENTO DO BICO,G92 E0; RESETA EXTRUSOR,G1 X1.0 E9.0 F1000.0 ; PURGA,G1 X100.0 E12.5 F1000.0 ; PURGA,M117 IMPRIMINDO...,M400,
;   layerChangeGcode,
;   retractionGcode,
;   toolChangeGcode,
;   endingGcode,M107 ; DESLIGA FAN,G1 E-9.0 F1000.0 ; RETRAIR,G1 Z300,G1 Y100,G1 X-8,M104 S0 ; DESLIGA AQUECIMENTO BICO,M140 S0 ; DESLIGA AQUECIMENTO MESA,M84 ; DESLIGA MOTORES,M300 S4 P1000 ; GERA BEEP
;   exportFileFormat,gcode
;   celebration,0
;   celebrationSong,Star Wars
;   postProcessing,
;   defaultSpeed,1200
;   outlineUnderspeed,1
;   solidInfillUnderspeed,1
;   supportUnderspeed,1
;   rapidXYspeed,9000
;   rapidZspeed,2400
;   minBridgingArea,5
;   bridgingExtraInflation,2
;   bridgingExtrusionMultiplier,0.9
;   bridgingSpeedMultiplier,1
;   useFixedBridgingAngle,0
;   fixedBridgingAngle,0
;   applyBridgingToPerimeters,1
;   filamentDiameters,1.74|1.74|1.74|1.74|1.74|1.74
;   filamentPricesPerKg,120|120|120|120|120|120
;   filamentDensities,1.08|1.25|1.25|1.25|1.25|1.25
;   useMinPrintHeight,0
;   minPrintHeight,0
;   useMaxPrintHeight,0
;   maxPrintHeight,0
;   useDiaphragm,0
;   diaphragmLayerInterval,20
;   robustSlicing,1
;   mergeAllIntoSolid,0
;   onlyRetractWhenCrossingOutline,0
;   retractBetweenLayers,1
;   useRetractionMinTravel,1
;   retractionMinTravel,3
;   retractWhileWiping,0
;   onlyWipeOutlines,1
;   avoidCrossingOutline,0
;   maxMovementDetourFactor,3
;   toolChangeRetractionDistance,12
;   toolChangeExtraRestartDistance,-0.5
;   toolChangeRetractionSpeed,600
;   externalThinWallType,1
;   internalThinWallType,1
;   thinWallAllowedOverlapPercentage,30
;   singleExtrusionMinLength,1
;   singleExtrusionMinPrintingWidthPercentage,50
;   singleExtrusionMaxPrintingWidthPercentage,200
;   singleExtrusionEndpointExtension,0.2
;   horizontalSizeCompensation,0
G90
M82
M106 S0
M140 S60
M190 S60
M109 S180; FAZ AQUECIMENTO DO BICO
M402
G28; HOME GERAL
M400
G29 V4 T ; AUTO NIVELAMENTO
M400
M104 S180; FAZ PRE AQUECIMENTO DO BICO
G1 X1 Y1 Z0.8 F1000; VAI PRA PONTO DE PURGA
M109 S180; FAZ AQUECIMENTO DO BICO
G92 E0; RESETA EXTRUSOR
G1 X1.0 E9.0 F1000.0 ; PURGA
G1 X100.0 E12.5 F1000.0 ; PURGA
M117 IMPRIMINDO...
M400
; process Process1
; layer 1, Z = 0.300
T0
G92 E0.0000
G1 E-3.5000 F3600
; feature skirt
; tool H0.300 W0.550
G1 Z1.000 F2400
G1 X27.675 Y25.501 F9000
G1 Z0.300 F2400
G1 E0.0000 F3600
G92 E0.0000
G1 X30.501 Y22.675 E0.2774 F1200
G1 X59.499 Y22.675 E2.2895
G1 X60.000 Y23.176 E2.3387
G1 X60.501 Y22.675 E2.3879
G1 X89.499 Y22.675 E4.4000
G1 X90.000 Y23.176 E4.4492
G1 X90.501 Y22.675 E4.4984
G1 X119.499 Y22.675 E6.5105
G1 X120.000 Y23.176 E6.5597
G1 X120.501 Y22.675 E6.6089
G1 X149.499 Y22.675 E8.6210
G1 X150.000 Y23.176 E8.6702
G1 X150.501 Y22.675 E8.7194
G1 X179.499 Y22.675 E10.7315
G1 X180.000 Y23.176 E10.7807
G1 X180.501 Y22.675 E10.8300
G1 X209.499 Y22.675 E12.8421
G1 X210.000 Y23.176 E12.8913
G1 X210.501 Y22.675 E12.9405
G1 X239.499 Y22.675 E14.9526
G1 X240.000 Y23.176 E15.0018
G1 X240.501 Y22.675 E15.0510
G1 X269.499 Y22.675 E17.0631
G1 X272.325 Y25.501 E17.3405
G1 X272.325 Y54.499 E19.3526
G1 X271.824 Y55.000 E19.4018
G1 X272.325 Y55.501 E19.4510
G1 X272.325 Y84.499 E21.4631
G1 X271.824 Y85.000 E21.5123
G1 X272.325 Y85.501 E21.5615
G1 X272.325 Y114.499 E23.5736
G1 X271.824 Y115.000 E23.6228
G1 X272.325 Y115.501 E23.6720
G1 X272.325 Y144.499 E25.6841
G1 X271.824 Y145.000 E25.7333
G1 X272.325 Y145.501 E25.7825
G1 X272.325 Y174.499 E27.7946
G1 X269.499 Y177.325 E28.0720
G1 X240.501 Y177.325 E30.0841
G1 X240.000 Y176.824 E30.1333
G1 X239.499 Y177.325 E30.1825
G1 X210.501 Y177.325 E32.1946
G1 X210.000 Y176.824 E32.2438
G1 X209.499 Y177.325 E32.2930
G1 X180.501 Y177.325 E34.3051
G1 X180.000 Y176.824 E34.3543
G1 X179.499 Y177.325 E34.4035
G1 X150.501 Y177.325 E36.4157
G1 X150.000 Y176.824 E36.4649
G1 X149.499 Y177.325 E36.5141
G1 X120.501 Y177.325 E38.5262
G1 X120.000 Y176.824 E38.5754
G1 X119.499 Y177.325 E38.6246
G1 X90.501 Y177.325 E40.6367
G1 X90.000 Y176.824 E40.6859
G1 X89.499 Y177.325 E40.7351
G1 X60.501 Y177.325 E42.7472
G1 X60.000 Y176.824 E42.7964
G1 X59.499 Y177.325 E42.8456
G1 X30.501 Y177.325 E44.8577
G1 X27.675 Y174.499 E45.1351
G1 X27.675 Y145.501 E47.1472
G1 X28.176 Y145.000 E47.1964
G1 X27.675 Y144.499 E47.2456
G1 X27.675 Y115.501 E49.2577
G1 X28.176 Y115.000 E49.3069
G1 X27.675 Y114.499 E49.3561
G1 X27.675 Y85.501 E51.3682
G1 X28.176 Y85.000 E51.4174
G1 X27.675 Y84.499 E51.4666
G1 X27.675 Y55.501 E53.4787
G1 X28.176 Y55.000 E53.5279
G1 X27.675 Y54.499 E53.5772
G1 X27.675 Y25.501 E55.5893
G1 X28.225 Y25.729 F9000
G92 E0.0000
G1 X30.729 Y23.225 E0.2457 F1200
G1 X59.271 Y23.225 E2.2262
G1 X60.000 Y23.954 E2.2978
G1 X60.729 Y23.225 E2.3694
G1 X89.271 Y23.225 E4.3498
G1 X90.000 Y23.954 E4.4214
G1 X90.729 Y23.225 E4.4930
G1 X119.271 Y23.225 E6.4735
G1 X120.000 Y23.954 E6.5450
G1 X120.729 Y23.225 E6.6166
G1 X149.271 Y23.225 E8.5971
G1 X150.000 Y23.954 E8.6686
G1 X150.729 Y23.225 E8.7402
G1 X179.271 Y23.225 E10.7207
G1 X180.000 Y23.954 E10.7923
G1 X180.729 Y23.225 E10.8638
G1 X209.271 Y23.225 E12.8443
G1 X210.000 Y23.954 E12.9159
G1 X210.729 Y23.225 E12.9874
G1 X239.271 Y23.225 E14.9679
G1 X240.000 Y23.954 E15.0395
G1 X240.729 Y23.225 E15.1110
G1 X269.271 Y23.225 E17.0915
G1 X271.775 Y25.729 E17.3373
G1 X271.775 Y54.271 E19.3178
G1 X271.046 Y55.000 E19.3893
G1 X271.775 Y55.729 E19.4609
G1 X271.775 Y84.271 E21.4414
G1 X271.046 Y85.000 E21.5129
G1 X271.775 Y85.729 E21.5845
G1 X271.775 Y114.271 E23.5650
G1 X271.046 Y115.000 E23.6366
G1 X271.775 Y115.729 E23.7081
G1 X271.775 Y144.271 E25.6886
G1 X271.046 Y145.000 E25.7602
G1 X271.775 Y145.729 E25.8317
G1 X271.775 Y174.271 E27.8122
G1 X269.271 Y176.775 E28.0580
G1 X240.729 Y176.775 E30.0385
G1 X240.000 Y176.046 E30.1100
G1 X239.271 Y176.775 E30.1816
G1 X210.729 Y176.775 E32.1621
G1 X210.000 Y176.046 E32.2336
G1 X209.271 Y176.775 E32.3052
G1 X180.729 Y176.775 E34.2857
G1 X180.000 Y176.046 E34.3572
G1 X179.271 Y176.775 E34.4288
G1 X150.729 Y176.775 E36.4093
G1 X150.000 Y176.046 E36.4809
G1 X149.271 Y176.775 E36.5524
G1 X120.729 Y176.775 E38.5329
G1 X120.000 Y176.046 E38.6045
G1 X119.271 Y176.775 E38.6760
G1 X90.729 Y176.775 E40.6565
G1 X90.000 Y176.046 E40.7281
G1 X89.271 Y176.775 E40.7997
G1 X60.729 Y176.775 E42.7801
G1 X60.000 Y176.046 E42.8517
G1 X59.271 Y176.775 E42.9233
G1 X30.729 Y176.775 E44.9038
G1 X28.225 Y174.271 E45.1495
G1 X28.225 Y145.729 E47.1300
G1 X28.954 Y145.000 E47.2016
G1 X28.225 Y144.271 E47.2731
G1 X28.225 Y115.729 E49.2536
G1 X28.954 Y115.000 E49.3252
G1 X28.225 Y114.271 E49.3967
G1 X28.225 Y85.729 E51.3772
G1 X28.954 Y85.000 E51.4488
G1 X28.225 Y84.271 E51.5203
G1 X28.225 Y55.729 E53.5008
G1 X28.954 Y55.000 E53.5724
G1 X28.225 Y54.271 E53.6440
G1 X28.225 Y25.729 E55.6244
G92 E0.0000
G1 E-3.5000 F3600
; feature outer perimeter
G1 Z1.300 F2400
G1 X32.775 Y27.775 F9000
G1 Z0.300 F2400
G1 E0.0000 F3600
G92 E0.0000
G1 X57.225 Y27.775 E1.6966 F1200
G1 X57.225 Y52.225 E0.8483; altered
G1 X32.775 Y52.225 E5.0897
G1 X32.775 Y27.875 E6.7794
G1 X32.775 Y27.775 F1200
G1 X34.775 Y27.775 F1200
; feature inner perimeter
G1 X33.325 Y28.325 F9000
G92 E0.0000
G1 X56.675 Y28.325 E1.6203 F1200
G1 X56.675 Y51.675 E0.8101; altered
G1 X33.325 Y51.675 E4.8608
G1 X33.325 Y28.425 E6.4741
G1 X33.325 Y28.325 F1200
G1 X33.875 Y28.875 F9000
G92 E0.0000
G1 X56.125 Y28.875 E1.5439 F1200
G1 X56.125 Y51.125 E0.7720; altered
G1 X33.875 Y51.125 E4.6318
G1 X33.875 Y28.975 E6.1688
G1 X33.875 Y28.875 F1200
G92 E0.0000
G1 E-3.5000 F3600
; feature solid layer
G1 Z1.300 F2400
G1 X55.230 Y29.343 F9000
G1 Z0.300 F2400
G1 E0.0000 F3600
G92 E0.0000
G1 X55.657 Y29.770 E0.0419 F1200
G1 X55.657 Y30.548 E0.0959
G1 X54.452 Y29.343 E0.2142
G1 X53.675 Y29.343 E0.2681
G1 X55.657 Y31.325 E0.4627
G1 X55.657 Y32.103 E0.5167
G1 X52.897 Y29.343 E0.7876
G1 X52.119 Y29.343 E0.8416
G1 X55.657 Y32.881 E1.1889
G1 X55.657 Y33.659 E1.2428
G1 X51.341 Y29.343 E1.6664
G1 X50.563 Y29.343 E1.7204
G1 X55.657 Y34.437 E2.2203
G1 X55.657 Y35.215 E2.2743
G1 X49.785 Y29.343 E2.8505
G1 X49.008 Y29.343 E2.9045
G1 X55.657 Y35.992 E3.5570
G1 X55.657 Y36.770 E3.6110
G1 X48.230 Y29.343 E4.3399
G1 X47.452 Y29.343 E4.3939
G1 X55.657 Y37.548 E5.1991
G1 X55.657 Y38.326 E5.2531
G1 X46.674 Y29.343 E6.1346
G1 X45.896 Y29.343 E6.1886
G1 X55.657 Y39.104 E7.1465
G1 X55.657 Y39.881 E7.2004
G1 X45.119 Y29.343 E8.2346
G1 X44.341 Y29.343 E8.2886
G1 X55.657 Y40.659 E9.3992
G1 X55.657 Y41.437 E9.4531
G1 X43.563 Y29.343 E10.6400
G1 X42.785 Y29.343 E10.6940
G1 X55.657 Y42.215 E11.9572
G1 X55.657 Y42.993 E12.0111
G1 X42.007 Y29.343 E13.3507
G1 X41.229 Y29.343 E13.4046
G1 X55.657 Y43.771 E14.8205
G1 X55.657 Y44.548 E14.8745
G1 X40.452 Y29.343 E16.3666
G1 X39.674 Y29.343 E16.4206
G1 X55.657 Y45.326 E17.9891
G1 X55.657 Y46.104 E18.0431
G1 X38.896 Y29.343 E19.6879
G1 X38.118 Y29.343 E19.7419
G1 X55.657 Y46.882 E21.4631
G1 X55.657 Y47.660 E21.5170
G1 X37.340 Y29.343 E23.3145
G1 X36.563 Y29.343 E23.3685
G1 X55.657 Y48.437 E25.2423
G1 X55.657 Y49.215 E25.2963
G1 X35.785 Y29.343 E27.2465
G1 X35.007 Y29.343 E27.3004
G1 X55.657 Y49.993 E29.3269
G1 X55.657 Y50.657 E29.3730
G1 X55.544 Y50.657 E29.3809
G1 X34.343 Y29.456 E31.4614
G1 X34.343 Y30.234 E31.5154
G1 X54.766 Y50.657 E33.5196
G1 X53.988 Y50.657 E33.5736
G1 X34.343 Y31.012 E35.5015
G1 X34.343 Y31.789 E35.5555
G1 X53.211 Y50.657 E37.4071
G1 X52.433 Y50.657 E37.4610
G1 X34.343 Y32.567 E39.2363
G1 X34.343 Y33.345 E39.2902
G1 X51.655 Y50.657 E40.9892
G1 X50.877 Y50.657 E41.0431
G1 X34.343 Y34.123 E42.6657
G1 X34.343 Y34.901 E42.7197
G1 X50.099 Y50.657 E44.2659
G1 X49.322 Y50.657 E44.3199
G1 X34.343 Y35.678 E45.7898
G1 X34.343 Y36.456 E45.8438
G1 X48.544 Y50.657 E47.2374
G1 X47.766 Y50.657 E47.2914
G1 X34.343 Y37.234 E48.6086
G1 X34.343 Y38.012 E48.6626
G1 X46.988 Y50.657 E49.9036
G1 X46.210 Y50.657 E49.9575
G1 X34.343 Y38.790 E51.1221
G1 X34.343 Y39.568 E51.1761
G1 X45.432 Y50.657 E52.2644
G1 X44.655 Y50.657 E52.3184
G1 X34.343 Y40.345 E53.3303
G1 X34.343 Y41.123 E53.3843
G1 X43.877 Y50.657 E54.3199
G1 X43.099 Y50.657 E54.3739
G1 X34.343 Y41.901 E55.2332
G1 X34.343 Y42.679 E55.2872
G1 X42.321 Y50.657 E56.0701
G1 X41.543 Y50.657 E56.1241
G1 X34.343 Y43.457 E56.8307
G1 X34.343 Y44.234 E56.8847
G1 X40.766 Y50.657 E57.5150
G1 X39.988 Y50.657 E57.5690
G1 X34.343 Y45.012 E58.1230
G1 X34.343 Y45.790 E58.1769
G1 X39.210 Y50.657 E58.6546
G1 X38.432 Y50.657 E58.7086
G1 X34.343 Y46.568 E59.1099
G1 X34.343 Y47.346 E59.1639
G1 X37.654 Y50.657 E59.4888
G1 X36.876 Y50.657 E59.5428
G1 X34.343 Y48.124 E59.7915
G1 X34.343 Y48.901 E59.8455
G1 X36.099 Y50.657 E60.0178
G1 X35.321 Y50.657 E60.0718
G1 X34.343 Y49.679 E60.1678
G1 X34.343 Y50.457 E60.2217
G1 X34.472 Y50.587 E60.2345
G1 X34.543 Y50.657 F1200
G92 E0.0000
G1 E-3.5000 F3600
; feature outer perimeter
G1 Z1.300 F2400
G1 X32.775 Y57.775 F9000
G1 Z0.300 F2400
G1 E0.0000 F3600
G92 E0.0000
G1 X57.225 Y57.775 E1.6966 F1200
G1 X57.225 Y82.225 E0.8483; altered
G1 X32.775 Y82.225 E5.0897
G1 X32.775 Y57.875 E6.7794
G1 X32.775 Y57.775 F1200
G1 X34.775 Y57.775 F1200
; feature inner perimeter
G1 X33.325 Y58.325 F9000
G92 E0.0000
G1 X56.675 Y58.325 E1.6203 F1200
G1 X56.675 Y81.675 E0.8101; altered
G1 X33.325 Y81.675 E4.8608
G1 X33.325 Y58.425 E6.4741
G1 X33.325 Y58.325 F1200
G1 X33.875 Y58.875 F9000
G92 E0.0000
G1 X56.125 Y58.875 E1.5439 F1200
G1 X56.125 Y81.125 E0.7720; altered
G1 X33.875 Y81.125 E4.6318
G1 X33.875 Y58.975 E6.1688
G1 X33.875 Y58.875 F1200
G92 E0.0000
G1 E-3.5000 F3600
; feature solid layer
G1 Z1.300 F2400
G1 X54.895 Y59.343 F9000
G1 Z0.300 F2400
G1 E0.0000 F3600
G92 E0.0000
G1 X55.657 Y60.105 E0.0748 F1200
G1 X55.657 Y60.883 E0.1288
G1 X54.117 Y59.343 E0.2799
G1 X53.340 Y59.343 E0.3339
G1 X55.657 Y61.660 E0.5613
G1 X55.657 Y62.438 E0.6153
G1 X52.562 Y59.343 E0.9191
G1 X51.784 Y59.343 E0.9731
G1 X55.657 Y63.216 E1.3532
G1 X55.657 Y63.994 E1.4071
G1 X51.006 Y59.343 E1.8636
G1 X50.228 Y59.343 E1.9175
G1 X55.657 Y64.772 E2.4503
G1 X55.657 Y65.549 E2.5043
G1 X49.451 Y59.343 E3.1134
G1 X48.673 Y59.343 E3.1674
