; G-Code generated by Simplify3D(R) Version 4.1.2
; Dec 29, 2022 at 9:18:28 AM
; Settings Summary
;   processName,Process1
;   applyToModels,Retangulo - v2,Retangulo - v2(2),Retangulo - v2(3),Retangulo - v2(4),Retangulo - v2(7),Retangulo - v2(8),Retangulo - v2(9),Retangulo - v2(10),Retangulo - v2(11),Retangulo - v2(12),Retangulo - v2(13),Retangulo - v2(16),Retangulo - v2(17),Retangulo - v2(18),Retangulo - v2(19),Retangulo - v2(20),Retangulo - v2(21),Retangulo - v2(22),Retangulo - v2(23),Retangulo - v2(9)(2),Retangulo - v2(10)(2),Retangulo - v2(11)(2),Retangulo - v2(9)(3),Retangulo - v2(10)(3),Retangulo - v2(11)(3),Retangulo - v2(9)(4),Retangulo - v2(10)(4),Retangulo - v2(11)(4)
;   profileName,CORE A1v2 PLA - Ensaio dataset 29-12-2022
;   profileVersion,2022-12-15 14:39:38
;   baseProfile,ABS Q. MEDIA
;   printMaterial,
;   printQuality,
;   printExtruders,
;   extruderName,Extruder 1
;   extruderToolheadNumber,0
;   extruderDiameter,0.4
;   extruderAutoWidth,0
;   extruderWidth,0.44
;   extrusionMultiplier,1
;   extruderUseRetract,1
;   extruderRetractionDistance,3.5
;   extruderExtraRestartDistance,0
;   extruderRetractionZLift,0
;   extruderRetractionSpeed,3600
;   extruderUseCoasting,1
;   extruderCoastingDistance,0.1
;   extruderUseWipe,1
;   extruderWipeDistance,2
;   primaryExtruder,0
;   layerHeight,0.3
;   topSolidLayers,9
;   bottomSolidLayers,6
;   perimeterOutlines,3
;   printPerimetersInsideOut,0
;   startPointOption,3
;   startPointOriginX,0
;   startPointOriginY,0
;   sequentialIslands,0
;   spiralVaseMode,0
;   firstLayerHeightPercentage,100
;   firstLayerWidthPercentage,125
;   firstLayerUnderspeed,1
;   useRaft,0
;   raftExtruder,0
;   raftTopLayers,3
;   raftBaseLayers,2
;   raftOffset,3
;   raftSeparationDistance,0.14
;   raftTopInfill,100
;   aboveRaftSpeedMultiplier,0.3
;   useSkirt,1
;   skirtExtruder,0
;   skirtLayers,1
;   skirtOutlines,2
;   skirtOffset,4
;   usePrimePillar,0
;   primePillarExtruder,999
;   primePillarWidth,12
;   primePillarLocation,7
;   primePillarSpeedMultiplier,1
;   useOozeShield,0
;   oozeShieldExtruder,999
;   oozeShieldOffset,2
;   oozeShieldOutlines,1
;   oozeShieldSidewallShape,1
;   oozeShieldSidewallAngle,30
;   oozeShieldSpeedMultiplier,1
;   infillExtruder,0
;   internalInfillPattern,Rectilinear
;   externalInfillPattern,Rectilinear
;   infillPercentage,20
;   outlineOverlapPercentage,15
;   infillExtrusionWidthPercentage,100
;   minInfillLength,5
;   infillLayerInterval,2
;   internalInfillAngles,45,-45
;   overlapInternalInfillAngles,0
;   externalInfillAngles,45,-45
;   generateSupport,0
;   supportExtruder,0
;   supportInfillPercentage,30
;   supportExtraInflation,0.4
;   supportBaseLayers,0
;   denseSupportExtruder,0
;   denseSupportLayers,0
;   denseSupportInfillPercentage,70
;   supportLayerInterval,2
;   supportHorizontalPartOffset,0.4
;   supportUpperSeparationLayers,1
;   supportLowerSeparationLayers,1
;   supportType,0
;   supportGridSpacing,4
;   maxOverhangAngle,60
;   supportAngles,45
;   temperatureName,Extruder 1 Temperature,Heated Bed
;   temperatureNumber,0,0
;   temperatureSetpointCount,2,1
;   temperatureSetpointLayers,1,2,1
;   temperatureSetpointTemperatures,190,190,60
;   temperatureStabilizeAtStartup,1,1
;   temperatureHeatedBed,0,1
;   fanLayers,1,3
;   fanSpeeds,0,100
;   blipFanToFullPower,1
;   adjustSpeedForCooling,0
;   minSpeedLayerTime,25
;   minCoolingSpeedSlowdown,40
;   increaseFanForCooling,1
;   minFanLayerTime,45
;   maxCoolingFanSpeed,100
;   increaseFanForBridging,1
;   bridgingFanSpeed,100
;   use5D,1
;   relativeEdistances,0
;   allowEaxisZeroing,1
;   independentExtruderAxes,0
;   includeM10123,0
;   stickySupport,1
;   applyToolheadOffsets,0
;   gcodeXoffset,0
;   gcodeYoffset,0
;   gcodeZoffset,0
;   overrideMachineDefinition,1
;   machineTypeOverride,0
;   strokeXoverride,300
;   strokeYoverride,200
;   strokeZoverride,300
;   originOffsetXoverride,0
;   originOffsetYoverride,0
;   originOffsetZoverride,0
;   homeXdirOverride,-1
;   homeYdirOverride,-1
;   homeZdirOverride,-1
;   flipXoverride,1
;   flipYoverride,-1
;   flipZoverride,1
;   toolheadOffsets,0,0|0,0|0,0|0,0|0,0|0,0
;   overrideFirmwareConfiguration,0
;   firmwareTypeOverride,RepRap (Marlin/Repetier/Sprinter)
;   GPXconfigOverride,r2
;   baudRateOverride,115200
;   overridePrinterModels,0
;   printerModelsOverride
;   startingGcode,M109 S100; FAZ AQUECIMENTO DO BICO,M402,G28; HOME GERAL,M400,G29 P2 H80 V4 T ; AUTO NIVELAMENTO,M400,M104 S[extruder0_temperature]; FAZ PRE AQUECIMENTO DO BICO,G1 X1 Y1 Z0.8 F1000; VAI PRA PONTO DE PURGA,M109 S[extruder0_temperature]; FAZ AQUECIMENTO DO BICO,G92 E0; RESETA EXTRUSOR,G1 X1.0 E9.0 F1000.0 ; PURGA,G1 X100.0 E12.5 F1000.0 ; PURGA,M117 IMPRIMINDO...,M400,
;   layerChangeGcode,
;   retractionGcode,
;   toolChangeGcode,
;   endingGcode,M107 ; DESLIGA FAN,G1 E-9.0 F1000.0 ; RETRAIR,G1 Z300,G1 Y100,G1 X-8,M104 S0 ; DESLIGA AQUECIMENTO BICO,M140 S0 ; DESLIGA AQUECIMENTO MESA,M84 ; DESLIGA MOTORES,M300 S4 P1000 ; GERA BEEP
;   exportFileFormat,gcode
;   celebration,0
;   celebrationSong,Star Wars
;   postProcessing,
;   defaultSpeed,1200
;   outlineUnderspeed,1
;   solidInfillUnderspeed,1
;   supportUnderspeed,1
;   rapidXYspeed,9000
;   rapidZspeed,2400
;   minBridgingArea,5
;   bridgingExtraInflation,2
;   bridgingExtrusionMultiplier,0.9
;   bridgingSpeedMultiplier,1
;   useFixedBridgingAngle,0
;   fixedBridgingAngle,0
;   applyBridgingToPerimeters,1
;   filamentDiameters,1.74|1.74|1.74|1.74|1.74|1.74
;   filamentPricesPerKg,120|120|120|120|120|120
;   filamentDensities,1.08|1.25|1.25|1.25|1.25|1.25
;   useMinPrintHeight,0
;   minPrintHeight,0
;   useMaxPrintHeight,0
;   maxPrintHeight,0
;   useDiaphragm,0
;   diaphragmLayerInterval,20
;   robustSlicing,1
;   mergeAllIntoSolid,0
;   onlyRetractWhenCrossingOutline,1
;   retractBetweenLayers,1
;   useRetractionMinTravel,0
;   retractionMinTravel,3
;   retractWhileWiping,0
;   onlyWipeOutlines,1
;   avoidCrossingOutline,0
;   maxMovementDetourFactor,3
;   toolChangeRetractionDistance,12
;   toolChangeExtraRestartDistance,-0.5
;   toolChangeRetractionSpeed,600
;   externalThinWallType,1
;   internalThinWallType,1
;   thinWallAllowedOverlapPercentage,30
;   singleExtrusionMinLength,1
;   singleExtrusionMinPrintingWidthPercentage,50
;   singleExtrusionMaxPrintingWidthPercentage,200
;   singleExtrusionEndpointExtension,0.2
;   horizontalSizeCompensation,0
G90
M82
M106 S0
M140 S60
M190 S60
M109 S100; FAZ AQUECIMENTO DO BICO
M402
G28; HOME GERAL
M400
G29 P2 H80 V4 T ; AUTO NIVELAMENTO
M400
M104 S190; FAZ PRE AQUECIMENTO DO BICO
G1 X1 Y1 Z0.8 F1000; VAI PRA PONTO DE PURGA
M109 S190; FAZ AQUECIMENTO DO BICO
G92 E0; RESETA EXTRUSOR
G1 X1.0 E9.0 F1000.0 ; PURGA
G1 X100.0 E12.5 F1000.0 ; PURGA
M117 IMPRIMINDO...
M400
; process Process1
; layer 1, Z = 0.300
T0
G92 E0.0000
G1 E-3.5000 F3600
; feature skirt
; tool H0.300 W0.550
G1 Z0.300 F2400
G1 X30.501 Y37.675 F9000
G1 E0.0000 F3600
G92 E0.0000
G1 X59.499 Y37.675 E2.0121 F1200
G1 X60.000 Y38.176 E2.0613
G1 X60.501 Y37.675 E2.1105
G1 X89.499 Y37.675 E4.1226
G1 X90.000 Y38.176 E4.1718
G1 X90.501 Y37.675 E4.2210
G1 X119.499 Y37.675 E6.2331
G1 X120.000 Y38.176 E6.2823
G1 X120.501 Y37.675 E6.3316
G1 X149.499 Y37.675 E8.3437
G1 X150.000 Y38.176 E8.3929
G1 X150.501 Y37.675 E8.4421
G1 X179.499 Y37.675 E10.4542
G1 X180.000 Y38.176 E10.5034
G1 X180.501 Y37.675 E10.5526
G1 X209.499 Y37.675 E12.5647
G1 X210.000 Y38.176 E12.6139
G1 X210.501 Y37.675 E12.6631
G1 X239.499 Y37.675 E14.6752
G1 X240.000 Y38.176 E14.7244
G1 X240.501 Y37.675 E14.7736
G1 X269.499 Y37.675 E16.7857
G1 X272.325 Y40.501 E17.0631
G1 X272.325 Y69.499 E19.0752
G1 X271.824 Y70.000 E19.1244
G1 X272.325 Y70.501 E19.1736
G1 X272.325 Y99.499 E21.1857
G1 X271.824 Y100.000 E21.2349
G1 X272.325 Y100.501 E21.2841
G1 X272.325 Y129.499 E23.2962
G1 X271.824 Y130.000 E23.3454
G1 X272.325 Y130.501 E23.3946
G1 X272.325 Y159.499 E25.4068
G1 X269.499 Y162.325 E25.6841
G1 X240.501 Y162.325 E27.6962
G1 X240.000 Y161.824 E27.7454
G1 X239.499 Y162.325 E27.7946
G1 X210.501 Y162.325 E29.8067
G1 X210.000 Y161.824 E29.8559
G1 X209.499 Y162.325 E29.9051
G1 X180.501 Y162.325 E31.9173
G1 X180.000 Y161.824 E31.9665
G1 X179.499 Y162.325 E32.0157
G1 X150.501 Y162.325 E34.0278
G1 X150.000 Y161.824 E34.0770
G1 X149.499 Y162.325 E34.1262
G1 X120.501 Y162.325 E36.1383
G1 X120.000 Y161.824 E36.1875
G1 X119.499 Y162.325 E36.2367
G1 X90.501 Y162.325 E38.2488
G1 X87.675 Y159.499 E38.5262
G1 X87.675 Y130.501 E40.5383
G1 X88.176 Y130.000 E40.5875
G1 X87.675 Y129.499 E40.6367
G1 X87.675 Y102.325 E42.5223
G1 X60.501 Y102.325 E44.4078
G1 X60.000 Y101.824 E44.4570
G1 X59.499 Y102.325 E44.5062
G1 X30.501 Y102.325 E46.5183
G1 X27.675 Y99.499 E46.7957
G1 X27.675 Y70.501 E48.8078
G1 X28.176 Y70.000 E48.8570
G1 X27.675 Y69.499 E48.9062
G1 X27.675 Y40.501 E50.9183
G1 X30.501 Y37.675 E51.1957
G92 E0.0000
G1 E-3.5000 F3600
G1 X30.729 Y38.225 F9000
G1 E0.0000 F3600
G92 E0.0000
G1 X59.271 Y38.225 E1.9805 F1200
G1 X60.000 Y38.954 E2.0521
G1 X60.729 Y38.225 E2.1236
G1 X89.271 Y38.225 E4.1041
G1 X90.000 Y38.954 E4.1757
G1 X90.729 Y38.225 E4.2472
G1 X119.271 Y38.225 E6.2277
G1 X120.000 Y38.954 E6.2993
G1 X120.729 Y38.225 E6.3708
G1 X149.271 Y38.225 E8.3513
G1 X150.000 Y38.954 E8.4229
G1 X150.729 Y38.225 E8.4945
G1 X179.271 Y38.225 E10.4749
G1 X180.000 Y38.954 E10.5465
G1 X180.729 Y38.225 E10.6181
G1 X209.271 Y38.225 E12.5986
G1 X210.000 Y38.954 E12.6701
G1 X210.729 Y38.225 E12.7417
G1 X239.271 Y38.225 E14.7222
G1 X240.000 Y38.954 E14.7937
G1 X240.729 Y38.225 E14.8653
G1 X269.271 Y38.225 E16.8458
G1 X271.775 Y40.729 E17.0915
G1 X271.775 Y69.271 E19.0720
G1 X271.046 Y70.000 E19.1436
G1 X271.775 Y70.729 E19.2151
G1 X271.775 Y99.271 E21.1956
G1 X271.046 Y100.000 E21.2672
G1 X271.775 Y100.729 E21.3388
G1 X271.775 Y129.271 E23.3192
G1 X271.046 Y130.000 E23.3908
G1 X271.775 Y130.729 E23.4624
G1 X271.775 Y159.271 E25.4429
G1 X269.271 Y161.775 E25.6886
G1 X240.729 Y161.775 E27.6691
G1 X240.000 Y161.046 E27.7407
G1 X239.271 Y161.775 E27.8122
G1 X210.729 Y161.775 E29.7927
G1 X210.000 Y161.046 E29.8643
G1 X209.271 Y161.775 E29.9358
G1 X180.729 Y161.775 E31.9163
G1 X180.000 Y161.046 E31.9879
G1 X179.271 Y161.775 E32.0594
G1 X150.729 Y161.775 E34.0399
G1 X150.000 Y161.046 E34.1115
G1 X149.271 Y161.775 E34.1831
G1 X120.729 Y161.775 E36.1636
G1 X120.000 Y161.046 E36.2351
G1 X119.271 Y161.775 E36.3067
G1 X90.729 Y161.775 E38.2872
G1 X88.225 Y159.271 E38.5329
G1 X88.225 Y130.729 E40.5134
G1 X88.954 Y130.000 E40.5850
G1 X88.225 Y129.271 E40.6565
G1 X88.225 Y101.775 E42.5645
G1 X60.729 Y101.775 E44.4724
G1 X60.000 Y101.046 E44.5439
G1 X59.271 Y101.775 E44.6155
G1 X30.729 Y101.775 E46.5960
G1 X28.225 Y99.271 E46.8417
G1 X28.225 Y70.729 E48.8222
G1 X28.954 Y70.000 E48.8938
G1 X28.225 Y69.271 E48.9654
G1 X28.225 Y40.729 E50.9458
G1 X30.729 Y38.225 E51.1916
G92 E0.0000
G1 E-3.5000 F3600
; feature outer perimeter
G1 X32.775 Y42.775 F9000
G1 E0.0000 F3600
G92 E0.0000
G1 X57.225 Y42.775 E1.6966 F1200
G1 X57.225 Y67.225 E3.3932
G1 X32.775 Y67.225 E5.0897
G1 X32.775 Y42.875 E6.7794
G1 X32.775 Y42.775 F1200
G1 X34.775 Y42.775 F1200
; feature inner perimeter
G1 X33.325 Y43.325 F9000
G92 E0.0000
G1 X56.675 Y43.325 E1.6203 F1200
G1 X56.675 Y66.675 E3.2405
G1 X33.325 Y66.675 E4.8608
G1 X33.325 Y43.425 E6.4741
G1 X33.325 Y43.325 F1200
G1 X33.875 Y43.875 F9000
G92 E0.0000
G1 X56.125 Y43.875 E1.5439 F1200
G1 X56.125 Y66.125 E3.0878
G1 X33.875 Y66.125 E4.6318
G1 X33.875 Y43.975 E6.1688
G1 X33.875 Y43.875 F1200
; feature solid layer
G1 X55.452 Y44.343 F9000
G92 E0.0000
G1 X55.657 Y44.548 E0.0202 F1200
G1 X55.657 Y45.326 E0.0742
G1 X54.674 Y44.343 E0.1707
G1 X53.896 Y44.343 E0.2247
G1 X55.657 Y46.104 E0.3975
G1 X55.657 Y46.882 E0.4515
G1 X53.118 Y44.343 E0.7007
G1 X52.340 Y44.343 E0.7547
G1 X55.657 Y47.660 E1.0802
G1 X55.657 Y48.437 E1.1342
G1 X51.563 Y44.343 E1.5360
G1 X50.785 Y44.343 E1.5900
G1 X55.657 Y49.215 E2.0682
G1 X55.657 Y49.993 E2.1221
G1 X50.007 Y44.343 E2.6766
G1 X49.229 Y44.343 E2.7306
G1 X55.657 Y50.771 E3.3614
G1 X55.657 Y51.549 E3.4154
G1 X48.451 Y44.343 E4.1226
G1 X47.673 Y44.343 E4.1765
G1 X55.657 Y52.327 E4.9600
G1 X55.657 Y53.104 E5.0140
G1 X46.896 Y44.343 E5.8738
G1 X46.118 Y44.343 E5.9278
G1 X55.657 Y53.882 E6.8639
G1 X55.657 Y54.660 E6.9179
G1 X45.340 Y44.343 E7.9304
G1 X44.562 Y44.343 E7.9844
G1 X55.657 Y55.438 E9.0732
G1 X55.657 Y56.216 E9.1271
G1 X43.784 Y44.343 E10.2923
G1 X43.007 Y44.343 E10.3462
G1 X55.657 Y56.993 E11.5877
G1 X55.657 Y57.771 E11.6417
G1 X42.229 Y44.343 E12.9595
G1 X41.451 Y44.343 E13.0134
G1 X55.657 Y58.549 E14.4076
G1 X55.657 Y59.327 E14.4615
G1 X40.673 Y44.343 E15.9320
G1 X39.895 Y44.343 E15.9859
G1 X55.657 Y60.105 E17.5327
G1 X55.657 Y60.883 E17.5867
G1 X39.117 Y44.343 E19.2098
G1 X38.340 Y44.343 E19.2638
G1 X55.657 Y61.660 E20.9632
G1 X55.657 Y62.438 E21.0172
G1 X37.562 Y44.343 E22.7929
G1 X36.784 Y44.343 E22.8469
G1 X55.657 Y63.216 E24.6990
G1 X55.657 Y63.994 E24.7530
G1 X36.006 Y44.343 E26.6814
G1 X35.228 Y44.343 E26.7354
G1 X55.657 Y64.772 E28.7401
G1 X55.657 Y65.549 E28.7941
G1 X34.451 Y44.343 E30.8752
G1 X34.343 Y44.343 E30.8827
G1 X34.343 Y45.012 E30.9291
G1 X54.988 Y65.657 E32.9551
G1 X54.210 Y65.657 E33.0091
G1 X34.343 Y45.790 E34.9587
G1 X34.343 Y46.568 E35.0127
G1 X53.432 Y65.657 E36.8860
G1 X52.654 Y65.657 E36.9400
G1 X34.343 Y47.346 E38.7369
G1 X34.343 Y48.124 E38.7909
G1 X51.876 Y65.657 E40.5115
G1 X51.099 Y65.657 E40.5655
G1 X34.343 Y48.901 E42.2098
G1 X34.343 Y49.679 E42.2638
G1 X50.321 Y65.657 E43.8318
G1 X49.543 Y65.657 E43.8858
G1 X34.343 Y50.457 E45.3774
G1 X34.343 Y51.235 E45.4314
G1 X48.765 Y65.657 E46.8467
G1 X47.987 Y65.657 E46.9007
G1 X34.343 Y52.013 E48.2397
G1 X34.343 Y52.790 E48.2937
G1 X47.210 Y65.657 E49.5563
G1 X46.432 Y65.657 E49.6103
G1 X34.343 Y53.568 E50.7967
G1 X34.343 Y54.346 E50.8506
G1 X45.654 Y65.657 E51.9606
G1 X44.876 Y65.657 E52.0146
G1 X34.343 Y55.124 E53.0483
G1 X34.343 Y55.902 E53.1023
G1 X44.098 Y65.657 E54.0596
G1 X43.320 Y65.657 E54.1136
G1 X34.343 Y56.680 E54.9946
G1 X34.343 Y57.457 E55.0486
G1 X42.543 Y65.657 E55.8533
G1 X41.765 Y65.657 E55.9073
G1 X34.343 Y58.235 E56.6357
G1 X34.343 Y59.013 E56.6896
G1 X40.987 Y65.657 E57.3417
G1 X40.209 Y65.657 E57.3956
G1 X34.343 Y59.791 E57.9714
G1 X34.343 Y60.569 E58.0253
G1 X39.431 Y65.657 E58.5247
G1 X38.654 Y65.657 E58.5787
G1 X34.343 Y61.346 E59.0017
G1 X34.343 Y62.124 E59.0557
G1 X37.876 Y65.657 E59.4024
G1 X37.098 Y65.657 E59.4564
G1 X34.343 Y62.902 E59.7268
G1 X34.343 Y63.680 E59.7808
G1 X36.320 Y65.657 E59.9748
G1 X35.542 Y65.657 E60.0288
G1 X34.343 Y64.458 E60.1466
G1 X34.343 Y65.236 E60.2005
G1 X34.694 Y65.587 E60.2350
G1 X34.764 Y65.657 F1200
G92 E0.0000
G1 E-3.5000 F3600
; feature outer perimeter
G1 X32.775 Y72.775 F9000
G1 E0.0000 F3600
G92 E0.0000
G1 X57.225 Y72.775 E1.6966 F1200
G1 X57.225 Y97.225 E3.3932
G1 X32.775 Y97.225 E5.0897
G1 X32.775 Y72.875 E6.7794
G1 X32.775 Y72.775 F1200
G1 X34.775 Y72.775 F1200
; feature inner perimeter
G1 X33.325 Y73.325 F9000
G92 E0.0000
G1 X56.675 Y73.325 E1.6203 F1200
G1 X56.675 Y96.675 E3.2405
G1 X33.325 Y96.675 E4.8608
G1 X33.325 Y73.425 E6.4741
G1 X33.325 Y73.325 F1200
G1 X33.875 Y73.875 F9000
G92 E0.0000
G1 X56.125 Y73.875 E1.5439 F1200
G1 X56.125 Y96.125 E3.0878
G1 X33.875 Y96.125 E4.6318
G1 X33.875 Y73.975 E6.1688
G1 X33.875 Y73.875 F1200
; feature solid layer
G1 X55.117 Y74.343 F9000
G92 E0.0000
G1 X55.657 Y74.883 E0.0531 F1200
G1 X55.657 Y75.661 E0.1070
G1 X54.339 Y74.343 E0.2364
G1 X53.561 Y74.343 E0.2904
G1 X55.657 Y76.439 E0.4961
G1 X55.657 Y77.217 E0.5501
G1 X52.783 Y74.343 E0.8321
G1 X52.005 Y74.343 E0.8861
G1 X55.657 Y77.995 E1.2445
G1 X55.657 Y78.772 E1.2985
G1 X51.228 Y74.343 E1.7332
G1 X50.450 Y74.343 E1.7872
G1 X55.657 Y79.550 E2.2982
G1 X55.657 Y80.328 E2.3522
G1 X49.672 Y74.343 E2.9395
G1 X48.894 Y74.343 E2.9935
G1 X55.657 Y81.106 E3.6572
G1 X55.657 Y81.884 E3.7112
G1 X48.116 Y74.343 E4.4512
G1 X47.339 Y74.343 E4.5052
G1 X55.657 Y82.661 E5.3215
G1 X55.657 Y83.439 E5.3755
G1 X46.561 Y74.343 E6.2682
G1 X45.783 Y74.343 E6.3221
